apps/16/kolf.svg

<?xml version="1.0" encoding="UTF-8" standalone="no"?>
<svg
   xmlns:dc="http://purl.org/dc/elements/1.1/"
   xmlns:cc="http://creativecommons.org/ns#"
   xmlns:rdf="http://www.w3.org/1999/02/22-rdf-syntax-ns#"
   xmlns:svg="http://www.w3.org/2000/svg"
   xmlns="http://www.w3.org/2000/svg"
   xmlns:sodipodi="http://sodipodi.sourceforge.net/DTD/sodipodi-0.dtd"
   xmlns:inkscape="http://www.inkscape.org/namespaces/inkscape"
   height="16.079"
   width="16.015"
   version="1.1"
   id="svg10"
   sodipodi:docname="kolf-symbolic.svg"
   inkscape:version="0.92.3 (2405546, 2018-03-11)">
  <metadata
     id="metadata16">
    <rdf:RDF>
      <cc:Work
         rdf:about="">
        <dc:format>image/svg+xml</dc:format>
        <dc:type
           rdf:resource="http://purl.org/dc/dcmitype/StillImage" />
        <dc:title></dc:title>
      </cc:Work>
    </rdf:RDF>
  </metadata>
  <defs
     id="defs14" />
  <sodipodi:namedview
     pagecolor="#808080"
     bordercolor="#808080666"
     borderopacity="1"
     objecttolerance="10"
     gridtolerance="10"
     guidetolerance="10"
     inkscape:pageopacity="0"
     inkscape:pageshadow="2"
     inkscape:window-width="1665"
     inkscape:window-height="656"
     id="namedview12"
     showgrid="false"
     inkscape:zoom="14.677529"
     inkscape:cx="-5.4825093"
     inkscape:cy="8.0395001"
     inkscape:window-x="0"
     inkscape:window-y="34"
     inkscape:window-maximized="0"
     inkscape:current-layer="g8" />
  <g
     color="#000"
     transform="translate(-492 -259.92)"
     id="g8">
    <path
       d="M500.182 261.004a6.99 6.99 0 0 0-6.248 3.492c-1.929 3.343-.776 7.63 2.57 9.563 3.346 1.933 7.634.792 9.562-2.551 1.929-3.343.776-7.633-2.57-9.567a6.98 6.98 0 0 0-3.314-.937zM500 262a6 6 0 0 1 6 6 6 6 0 0 1-6 6 6 6 0 0 1-6-6 6 6 0 0 1 6-6z"
       fill='#808080'
       font-family="sans-serif"
       font-weight="400"
       overflow="visible"
       style="line-height:normal;font-variant-ligatures:none;font-variant-position:normal;font-variant-caps:normal;font-variant-numeric:normal;font-variant-alternates:normal;font-feature-settings:normal;text-indent:0;text-align:start;text-decoration-line:none;text-decoration-style:solid;text-decoration-color:#000;text-transform:none;shape-padding:0;isolation:auto;mix-blend-mode:normal;marker:none"
       white-space="normal"
       id="path2" />
  </g>
</svg>

<svg xmlns="http://www.w3.org/2000/svg" width="16.015" height="16.079" version="1.1">
 <g transform="translate(-492,-259.92)">
  <path style="fill:#808080" d="M 500.18,261 A 6.99,6.99 0 0 0 493.93,264.5 C 492.01,267.84 493.16,272.13 496.5,274.06 499.85,275.99 504.14,274.85 506.07,271.51 508,268.17 506.84,263.88 503.5,261.94 A 6.98,6.98 0 0 0 500.18,261 Z M 500,262 A 6,6 0 0 1 506,268 6,6 0 0 1 500,274 6,6 0 0 1 494,268 6,6 0 0 1 500,262 Z"/>
 </g>
</svg>
